dataset/ungoogled-chromium/icon.svg

<?xml version="1.0" encoding="UTF-8" standalone="no"?>
<!-- Generator: Adobe Illustrator 23.0.1, SVG Export Plug-In . SVG Version: 6.00 Build 0)  -->

<svg
   version="1.1"
   id="Livello_1"
   x="0px"
   y="0px"
   viewBox="0 0 128 128"
   enable-background="new 0 0 240.1 240.1"
   xml:space="preserve"
   width="128"
   height="128"
   xmlns:xlink="http://www.w3.org/1999/xlink"
   xmlns="http://www.w3.org/2000/svg"
   xmlns:svg="http://www.w3.org/2000/svg"><defs
   id="defs13"><linearGradient
     id="linearGradient10"
     gradientUnits="userSpaceOnUse"
     x1="0"
     y1="269.46301"
     x2="118.926"
     y2="269.46301"
     gradientTransform="matrix(1,0,0,0.98333333,-118,-175.03333)"><stop
       offset="0"
       stop-color="#e5a50a"
       id="stop7"
       style="stop-color:#000000;stop-opacity:1;" /><stop
       offset="0.414"
       stop-color="#fbdf9b"
       id="stop8"
       style="stop-color:#ffffff;stop-opacity:1;" /><stop
       offset="0.81300002"
       stop-color="#e5a50a"
       id="stop9"
       style="stop-color:#000000;stop-opacity:1;" /><stop
       offset="1"
       stop-color="#f8ca5b"
       id="stop10"
       style="stop-color:#cdcdcd;stop-opacity:1;" /></linearGradient><linearGradient
     id="f"
     x1="148.44"
     x2="351.56"
     y1="351.56"
     y2="148.44"
     gradientTransform="matrix(0.2400212,0,0,0.23602771,3.9914494,2.9898889)"
     gradientUnits="userSpaceOnUse"
     href="#a" /><linearGradient
     id="a"><stop
       offset=".5"
       stop-color="#bf0000"
       id="stop1" /><stop
       offset="1"
       stop-color="red"
       id="stop2" /></linearGradient><linearGradient
     id="e"
     x1="364.25"
     x2="114.96"
     y1="27.66"
     y2="460.42001"
     gradientTransform="matrix(0.2400212,0,0,0.23602771,3.9914494,2.9898889)"
     gradientUnits="userSpaceOnUse"
     href="#b" /><linearGradient
     id="b"><stop
       offset="0"
       stop-color="maroon"
       id="stop3" /><stop
       offset="1"
       stop-color="#300"
       id="stop4" /></linearGradient><linearGradient
     id="d"
     x1="135.75"
     x2="385.04001"
     y1="472.42001"
     y2="39.639999"
     gradientTransform="matrix(0.2400212,0,0,0.23602771,3.9914494,2.9898889)"
     gradientUnits="userSpaceOnUse"
     href="#c" /><linearGradient
     id="c"><stop
       offset="0"
       stop-color="red"
       id="stop5" /><stop
       offset="1"
       stop-color="#f66"
       id="stop6" /></linearGradient><linearGradient
     xlink:href="#linearGradient10"
     id="linearGradient1"
     gradientUnits="userSpaceOnUse"
     gradientTransform="matrix(1.1111111,0,0,1.0925926,120.26972,-126.85559)"
     x1="-104.64275"
     y1="176.5119"
     x2="3.3572464"
     y2="176.5119" /><linearGradient
     xlink:href="#c"
     id="linearGradient16"
     gradientUnits="userSpaceOnUse"
     gradientTransform="matrix(0.2400212,0,0,0.23602771,3.9914494,6.9898889)"
     x1="135.75"
     y1="472.42001"
     x2="385.04001"
     y2="39.639999" /><linearGradient
     xlink:href="#b"
     id="linearGradient18"
     gradientUnits="userSpaceOnUse"
     gradientTransform="matrix(0.2400212,0,0,0.23602771,3.9914494,6.9898889)"
     x1="364.25"
     y1="27.66"
     x2="114.96"
     y2="460.42001" /><linearGradient
     xlink:href="#a"
     id="linearGradient19"
     gradientUnits="userSpaceOnUse"
     gradientTransform="matrix(0.2400212,0,0,0.23602771,3.9914494,6.9898889)"
     x1="148.44"
     y1="351.56"
     x2="351.56"
     y2="148.44" /></defs>

<path
   fill="url(#d)"
   d="M 93.999399,14.902076 33.994099,117.096 A 60.0053,59.002466 0 0 0 115.96052,95.500275 60.0053,59.002466 0 0 0 93.999399,14.902076"
   style="fill:url(#linearGradient16);stroke-width:0.238017"
   id="path10" /><path
   fill="url(#e)"
   d="M 93.999399,14.902076 A 60.0053,59.002466 0 0 0 12.037512,36.497813 60.0053,59.002466 0 0 0 33.998635,117.09155 l 0.0091,0.009 60.000764,-102.193928 z"
   style="fill:url(#linearGradient18);stroke-width:0.238017"
   id="path11" /><path
   fill="#ffffff"
   d="m 36.574827,118.49201 c -1.708967,-0.86355 -3.373989,-1.80873 -4.989104,-2.83215 v -4 l 59.84202,-98.153786 c 1.708967,0.86355 3.373988,1.80873 4.989103,2.832154 L 36.574827,114.49201 Z"
   style="stroke-width:0.238017"
   id="path12" /><path
   fill="#ffffff"
   d="m 33.994099,65.996813 a 30.00265,29.503463 0 1 0 60.0053,0 30.00265,29.503463 0 1 0 -60.0053,0"
   style="stroke-width:0.238017"
   id="path13" /><path
   fill="url(#f)"
   d="m 39.622714,65.996813 a 24.37857,23.972958 0 1 0 48.757141,0 24.37857,23.972958 0 0 0 -48.757141,0"
   style="fill:url(#linearGradient19);stroke-width:0.238017"
   id="path14" /><path
   id="circle2-6-1"
   style="opacity:0.5;fill:url(#linearGradient1);stroke-width:0.343027"
   d="M 124,66.000003 A 59.999999,58.999999 0 0 1 64,125 59.999999,58.999999 0 0 1 4,66.000003 a 59.999999,58.999999 0 0 1 60,-59 59.999999,58.999999 0 0 1 60,59 z" /><path
   fill="url(#d)"
   d="M 93.999399,10.902076 33.994099,113.096 A 60.0053,59.002466 0 0 0 115.96052,91.500275 60.0053,59.002466 0 0 0 93.999399,10.902076"
   style="fill:url(#d);stroke-width:0.238017"
   id="path6-5" /><path
   fill="url(#e)"
   d="M 93.999399,10.902076 A 60.0053,59.002466 0 0 0 12.037512,32.497813 60.0053,59.002466 0 0 0 33.998635,113.09155 l 0.0091,0.009 60.000764,-102.193928 z"
   style="fill:url(#e);stroke-width:0.238017"
   id="path7" /><path
   fill="#ffffff"
   d="m 36.574827,114.49201 a 58.962124,57.981106 0 0 1 -4.989104,-2.83215 L 91.427743,9.5060738 a 58.962124,57.981106 0 0 1 4.989103,2.8321542 z"
   style="stroke-width:0.238017"
   id="path8-9" /><path
   fill="#ffffff"
   d="m 33.994099,61.996813 a 30.00265,29.503463 0 1 0 60.0053,0 30.00265,29.503463 0 1 0 -60.0053,0"
   style="stroke-width:0.238017"
   id="path9" /><path
   fill="url(#f)"
   d="m 39.622714,61.996813 a 24.37857,23.972958 0 1 0 48.757141,0 24.37857,23.972958 0 0 0 -48.757141,0"
   style="fill:url(#f);stroke-width:0.238017"
   id="path10-2" /></svg>

<svg xmlns="http://www.w3.org/2000/svg" xmlns:xlink="http://www.w3.org/1999/xlink" xml:space="preserve" width="128" height="128" viewBox="0 0 128 128"><defs><linearGradient id="d" x1="0" x2="118.926" y1="269.463" y2="269.463" gradientTransform="matrix(1 0 0 .98333 -118 -175.033)" gradientUnits="userSpaceOnUse"><stop offset="0" stop-color="#e5a50a" style="stop-color:#000;stop-opacity:1"/><stop offset=".414" stop-color="#fbdf9b" style="stop-color:#fff;stop-opacity:1"/><stop offset=".813" stop-color="#e5a50a" style="stop-color:#000;stop-opacity:1"/><stop offset="1" stop-color="#f8ca5b" style="stop-color:#cdcdcd;stop-opacity:1"/></linearGradient><linearGradient id="i" x1="148.44" x2="351.56" y1="351.56" y2="148.44" gradientTransform="matrix(.24002 0 0 .23603 3.991 2.99)" gradientUnits="userSpaceOnUse" href="#a"/><linearGradient id="a"><stop offset=".5" stop-color="#bf0000"/><stop offset="1" stop-color="red"/></linearGradient><linearGradient id="g" x1="364.25" x2="114.96" y1="27.66" y2="460.42" gradientTransform="matrix(.24002 0 0 .23603 3.991 2.99)" gradientUnits="userSpaceOnUse" href="#b"/><linearGradient id="b"><stop offset="0" stop-color="maroon"/><stop offset="1" stop-color="#300"/></linearGradient><linearGradient id="e" x1="135.75" x2="385.04" y1="472.42" y2="39.64" gradientTransform="matrix(.24002 0 0 .23603 3.991 2.99)" gradientUnits="userSpaceOnUse" href="#c"/><linearGradient id="c"><stop offset="0" stop-color="red"/><stop offset="1" stop-color="#f66"/></linearGradient><linearGradient xlink:href="#d" id="k" x1="-104.643" x2="3.357" y1="176.512" y2="176.512" gradientTransform="matrix(1.11111 0 0 1.0926 120.27 -126.856)" gradientUnits="userSpaceOnUse"/><linearGradient xlink:href="#c" id="f" x1="135.75" x2="385.04" y1="472.42" y2="39.64" gradientTransform="matrix(.24002 0 0 .23603 3.991 6.99)" gradientUnits="userSpaceOnUse"/><linearGradient xlink:href="#b" id="h" x1="364.25" x2="114.96" y1="27.66" y2="460.42" gradientTransform="matrix(.24002 0 0 .23603 3.991 6.99)" gradientUnits="userSpaceOnUse"/><linearGradient xlink:href="#a" id="j" x1="148.44" x2="351.56" y1="351.56" y2="148.44" gradientTransform="matrix(.24002 0 0 .23603 3.991 6.99)" gradientUnits="userSpaceOnUse"/></defs><path fill="url(#e)" d="M94 14.902 33.993 117.096A60.005 59.002 0 0 0 115.961 95.5a60.005 59.002 0 0 0-21.962-80.598" style="fill:url(#f);stroke-width:.238017"/><path fill="url(#g)" d="M94 14.902a60.005 59.002 0 0 0-81.962 21.596 60.005 59.002 0 0 0 21.96 80.594l.01.009 60-102.194z" style="fill:url(#h);stroke-width:.238017"/><path fill="#fff" d="M36.575 118.492a59 59 0 0 1-4.99-2.832v-4l59.843-98.154a59 59 0 0 1 4.989 2.832l-59.842 98.154Z" style="stroke-width:.238017"/><path fill="#fff" d="M33.994 65.997a30.003 29.503 0 1 0 60.005 0 30.003 29.503 0 1 0-60.005 0" style="stroke-width:.238017"/><path fill="url(#i)" d="M39.623 65.997a24.379 23.973 0 1 0 48.757 0 24.379 23.973 0 0 0-48.757 0" style="fill:url(#j);stroke-width:.238017"/><path d="M124 66a60 59 0 0 1-60 59A60 59 0 0 1 4 66 60 59 0 0 1 64 7a60 59 0 0 1 60 59" style="opacity:.5;fill:url(#k);stroke-width:.343027"/><path fill="url(#e)" d="M94 10.902 33.993 113.096A60.005 59.002 0 0 0 115.961 91.5a60.005 59.002 0 0 0-21.962-80.598" style="fill:url(#e);stroke-width:.238017"/><path fill="url(#g)" d="M94 10.902a60.005 59.002 0 0 0-81.962 21.596 60.005 59.002 0 0 0 21.96 80.594l.01.009 60-102.194z" style="fill:url(#g);stroke-width:.238017"/><path fill="#fff" d="M36.575 114.492a58.962 57.981 0 0 1-4.99-2.832L91.429 9.506a58.962 57.981 0 0 1 4.989 2.832z" style="stroke-width:.238017"/><path fill="#fff" d="M33.994 61.997a30.003 29.503 0 1 0 60.005 0 30.003 29.503 0 1 0-60.005 0" style="stroke-width:.238017"/><path fill="url(#i)" d="M39.623 61.997a24.379 23.973 0 1 0 48.757 0 24.379 23.973 0 0 0-48.757 0" style="fill:url(#i);stroke-width:.238017"/></svg>
